app/dist/common/images/dime-community-bancshares.svg

<svg height="18" viewBox="0 0 18 18" width="18" xmlns="http://www.w3.org/2000/svg"><path d="m0 0h18v18h-18z" fill="#003b6f"/><path d="m3 8v4h1.52c.82 0 1.48-.87 1.48-1.93v-.14c0-1.06-.66-1.93-1.48-1.93zm1 1v2h.33c.37 0 .67-.32.67-.72v-.56c0-.4-.3-.72-.67-.72zm3.5-1h-1v4h1zm.5 0v4h1v-1.77l.6 1.77h.85l.55-1.77v1.77h1v-4h-1.43l-.57 2.23-.53-2.23zm4.5 0v4h2.5v-1h-1.5v-.5h1.5v-1h-1.5v-.5h1.5v-1z" fill="#fff" fill-rule="evenodd"/><path d="m15 7h-8l8-3z" fill="#b5c527"/></svg>

<!-- by TradingView --><svg width="18" height="18" viewBox="0 0 18 18" xmlns="http://www.w3.org/2000/svg"><path fill="#003B6F" d="M0 0h18v18H0z"/><path fill-rule="evenodd" d="M3 8v4h1.52C5.34 12 6 11.13 6 10.07v-.14C6 8.87 5.34 8 4.52 8H3Zm1 1v2h.33c.37 0 .67-.32.67-.72v-.56c0-.4-.3-.72-.67-.72H4Zm3.5-1h-1v4h1V8ZM8 8v4h1v-1.77L9.6 12h.85l.55-1.77V12h1V8h-1.43L10 10.23 9.47 8H8Zm4.5 0v4H15v-1h-1.5v-.5H15v-1h-1.5V9H15V8h-2.5Z" fill="#fff"/><path d="M15 7H7l8-3v3Z" fill="#B5C527"/></svg>
